X: 38504
T: Steeplechase, The
R: reel
M: 4/4
K: Cmajor
~c2 CD EG ~G2|Addc dcAB|~c2 cB ABcA|~G2EC DCA,C|
G,C ~C2 EG ~G2|Addc dcAB|~c2 cB A2 cA|GFDF EC C2:|
~c2 ec gceg|gedc dcAB|~c2 ec gcec|Addc dfed|
~c2 ec gcea|gedc ABcd|eg ~g2 ea ~a2|1 gedg eccB:|2 gedf eccB||

